X:1
T:20 études techniques et mélodiques
T:20 - Duo
T:E. Kohler
T:Op. 93 vol 2 - 20 études mélodiques
C:E. Kohler
%%score 1 2
L:1/8
Q:3/8=50
M:3/8
K:A
V:1 treble nm="Flûte"
V:2 treble nm="Flûte"
V:1
!p! (a/^e/g/).f/.c/.A/ | (d2 c) |!<(! (a/^e/g/).f/.a/c'/!<)! | (f'2!>(! ^e')!>)! | %4
!p! (3(d'/c'/b/ d').d' | (3(c'/b/a/ c'2) | (3(b/a/g/ b).a | g z/ .g/.f/.g/ | %8
!<(! (a/^e/g/).f/.c/.A/!<)! |!f! (d2 c) | (a/^e/!<(!g/).f/.a/.c'/!<)! |!f! (f'2 d') | %12
 (3(f/^d/=c/ f/) z/ .a/ z/ | (3(c'/a/e/ c2) | (3(e/g/b/ e'/)z/.g/ z/ | .a z2 | %16
!p! (a/^e/g/).f/.c/.A/ | (d2 c) |!<(! (a/^e/g/).f/.a/.c'/!<)! | (f'2!>(! ^e')!>)! | %20
!p! (3(d'/c'/b/ d'/)z/.d'/ z/ | (3(c'/b/a/ c'2) | (3(b/a/g/ b/)z/.a/ z/ | g z/ .g/.f/.g/ | %24
!<(! (a/^e/g/).f/.c/.A/!<)! |!f! (d2 c) | (a/^e/!<(!g/).f/.a/.c'/!<)! |!f!!>(! (f'2 d')!>)! | %28
 (3(f/^d/=c/ f/)z/.a/ z/ |!f! (3(c'/a/e/ c2) | (3(e/g/b/ e'/)z/.g/ z/ |!<(! .a/(a/g/a/b/c'/)!<)! | %32
!>(! (d'>a f)!>)! | z/!<(! (f/^e/f/=g/a/)!<)! |!>(! (b>=g e)!>)! | z/ (e/f/e/c/B/) | (A/b/ =g).g | %37
 (A/b/ =g).g | (f/d'/) a2- | a/(a/g/a/b/c'/) | (e'>d' a) | z/ (f/^e/f/=g/a/) | (c'>b) e- | %43
 e(^d/e/f/=g/) | (b/a/).=g/.f/.e/.d/ | .c/.B/.A/.=G/.F/E/ | .D/.F/.A/.d/.f/.a/ | d' z z | %48
 (Pe/c/A/f/c/A/) | e>(fg/a/) | (Pe/c/A/f/c/A/ | e3) | (Pe/d/G/f/d/G/) | e>(ga/b/) | e>(fg/a/) | %55
 ddd' | Tc'3- | c'/(a/c'/d'/e'/f'/) | Tc'3- | c'/a/e/c/A | d'3- | d'/(f'/d'/b/c'/d'/) | %62
 (c'/e'/c'/a/b/c'/) | (b/d'/b/g/e/b/ | a)"_ral.."aa | aaa |"_A tempo" (a/^e/g/).f/.c/.A/ | (d2 c) | %68
!<(! (a/^e/g/).f/.a/c'/!<)! | (f'2!>(! ^e')!>)! | (3(d'/c'/b/ d'/)z/.d'/ z/ | (3(c'/b/a/ c'2) | %72
 (3(b/a/g/ b/)z/.a/ z/ |!<(! g z/ .g/.f/.g/!<)! |!mf! (a/^e/g/).f/.c/.A/ | (d2 c) | %76
 (a/^e/g/).f/.a/.c'/ | (f'2 d') | (3(^b/a/^d/ ^B/)z/.b/ z/ | (3(c'/a/f/ c2) | (^B/c/).d/.c/.a/.g/ | %81
 f/ z/ !>!f'/ z/ z |] %82
V:2
!p! F/z/A/z/F/ z/ | z/ (F/G/F/^E/G/) |!<(! F/z/A/z/c/ z/!<)! | z/ (d/!>(!e/d/c/g/)!>)! | %4
!p! ^e/ z/ (3(f/g/a/) .A/ z/ | .A/ z/ (3(f/g/a/) .A/ z/ | d/ z/ (3(D/F/G/) .F/ z/ | %7
 .^E/!>!c/!>!^B/!>!=B/!>!A/!>!G/ | F/z/A/z/F/ z/ | z/ (F/G/F/^E/G/) | F/z/!<(!A/z/c/ z/!<)! | %11
!f! z/ (d/e/d/c/f/) | A/ z/ (3(A/=c/^d/ f/) z/ | e/ z/ (3(A/E/C/ A/) z/ | G/ z/ (3(B/G/E/ D/) z/ | %15
 C .C/.^E/.G/.c/ | F/z/A/z/F/ z/ | z/ (F/G/F/^E/G/) | F/z/A/z/c/ z/ | z/ (d/e/d/c/g/) | %20
 ^e/ z/ (3(B/e/g/ B/) z/ | A/ z/ (3(f/g/a/ A/) z/ | d/ z/ (3(D/F/G/ F/) z/ | %23
 !>!^E/!>!c/!>!^B/!>!=B/!>!A/!>!G/ | F/z/A/z/F/ z/ | z/ (F/G/F/^E/G/) | F/z/A/z/c/ z/ | %27
 z/ (d/e/d/c/f/) | A/ z/ (3(A/=c/^d/ f/) z/ | e/ z/ (3(A/E/C/ A/) z/ | G/ z/ (3(B/G/E/ D/) z/ | %31
 C z z | z/ (f/^e/f/d/A/) | (d>A F) | z/ (e/^d/e/B/=G/) | (B>=G E) | !>!C(A/e/c) | !>!C(A/e/ c) | %38
 .D(F/f/ d) | D z z | z/ (f/^e/f/d/A/) | (d>A F) | z/ (e/^d/e/B/=G/) | (B>=G E) | =G3- | %45
 G>(Aa/=g/) | (f/a/).f/.d/.A/.F/ | .D(F/A/) .d | Tc'3- | c'/(a/c'/d'/e'/f'/) | Tc'3- | %51
 c'/(a/e/c/A) | Td'3- | d'/(f'/d'/b/c'/d'/) | (c'/e'/c'/a/b/c'/) | (b/d'/b/a/g/f/) | %56
 (Pe/c/A/f/c/A/ | e>)(fg/a/) | (Pe/c/A/f/c/A/ | e3) | (Pe/d/G/f/d/G/ | e>)(ga/b/) | e>(fg/a/ | %63
 g)dd | c z z | z3 | F/z/A/z/F/ z/ | z/ (F/G/F/^E/G/) | F/z/A/z/c/ z/ | z/ (d/e/d/c/g/) | %70
 ^e/ z/ (3(B/e/g/ .B/) z/ | A/ z/ (3(f/g/a/ A/) z/ | d/ z/ (3(D/F/G/ F/) z/ | %73
 .^E/!>!c/!>!^B/!>!=B/!>!A/!>!G/ |!p! F/z/A/z/F/ z/ | z/ (F/G/F/^E/G/) | F/z/A/z/c/ z/ | %77
 z/ (d/e/d/c/f/) | ^d/ z/ (3(^D/F/A/ d/) z/ | c/ z/ (3(A/C/F/ A/) z/ | ^E2 B | A/ z/ !>!F/ z/ z |] %82

